casedrop/img/balance/images/usdt.svg

<svg width="53" height="47" viewBox="0 0 53 47" fill="none" xmlns="http://www.w3.org/2000/svg">
<g clip-path="url(#clip0_63_8675)">
<path fill-rule="evenodd" clip-rule="evenodd" d="M9.70349 0.230806L0.0397299 20.9237C0.0029565 21.0007 -0.00869676 21.0876 0.0064743 21.1718C0.0216454 21.256 0.0628448 21.3331 0.124048 21.3917L26.2235 46.887C26.2977 46.9595 26.3964 46.9999 26.4991 46.9999C26.6019 46.9999 26.7006 46.9595 26.7747 46.887L52.8742 21.3933C52.9354 21.3347 52.9766 21.2576 52.9918 21.1734C53.007 21.0892 52.9953 21.0023 52.9585 20.9253L43.2948 0.232398C43.2636 0.162902 43.2134 0.104031 43.1503 0.062819C43.0872 0.0216074 43.0137 -0.000200994 42.9388 2.86822e-07H10.0626C9.9873 -0.00095503 9.91331 0.020328 9.84959 0.061282C9.78586 0.102236 9.73512 0.161111 9.70349 0.230806Z" fill="#50AF95"/>
<path fill-rule="evenodd" clip-rule="evenodd" d="M29.8526 23.0487C29.6652 23.0631 28.6971 23.1219 26.5376 23.1219C24.82 23.1219 23.6006 23.0694 23.1727 23.0487C16.535 22.7511 11.5806 21.5732 11.5806 20.1629C11.5806 18.7526 16.535 17.5762 23.1727 17.2738V21.8756C23.6068 21.9074 24.8497 21.9822 26.5673 21.9822C28.6284 21.9822 29.6605 21.8947 29.8463 21.8772V17.277C36.4699 17.5778 41.4135 18.7557 41.4135 20.1629C41.4135 21.57 36.4715 22.7479 29.8463 23.0471L29.8526 23.0487ZM29.8526 16.8011V12.6832H39.0963V6.40366H13.929V12.6832H23.1712V16.7995C15.6591 17.1512 10.0098 18.6682 10.0098 20.486C10.0098 22.3038 15.6591 23.8191 23.1712 24.1725V37.3682H29.851V24.1677C37.3459 23.816 42.9858 22.3006 42.9858 20.4844C42.9858 18.6682 37.3506 17.1528 29.851 16.7995L29.8526 16.8011Z" fill="white"/>
</g>
<defs>
<clipPath id="clip0_63_8675">
<rect width="53" height="47" fill="white"/>
</clipPath>
</defs>
</svg>

<svg width="53" height="47" fill="none" xmlns="http://www.w3.org/2000/svg"><g clip-path="url(#clip0_63_8675)" fill-rule="evenodd" clip-rule="evenodd"><path d="M9.703.23L.04 20.925a.408.408 0 00.084.468l26.1 25.495a.394.394 0 00.55 0l26.1-25.494a.404.404 0 00.084-.468L43.296.232A.396.396 0 0042.939 0H10.063a.385.385 0 00-.36.23z" fill="#50AF95"/><path d="M29.853 23.049c-.188.014-1.156.073-3.315.073-1.718 0-2.937-.053-3.365-.073-6.638-.298-11.592-1.476-11.592-2.886 0-1.41 4.954-2.587 11.592-2.89v4.603a49.09 49.09 0 003.394.106c2.061 0 3.093-.087 3.28-.105v-4.6c6.623.3 11.566 1.479 11.566 2.886s-4.941 2.585-11.567 2.884l.007.002zm0-6.248v-4.118h9.243v-6.28H13.93v6.28h9.242V16.8c-7.512.352-13.161 1.87-13.161 3.687 0 1.818 5.65 3.333 13.161 3.686v13.196h6.68v-13.2c7.495-.352 13.135-1.867 13.135-3.684 0-1.816-5.635-3.331-13.135-3.685l.002.002z" fill="#fff"/></g><defs><clipPath id="clip0_63_8675"><path fill="#fff" d="M0 0h53v47H0z"/></clipPath></defs></svg>
